!!!SOCIAL_FUNCTION:	songs connected with legends
!!!PDT:	1929
!!!OTL: No_17_Song_That_Gave_Woman_the_Strength_to_Carry_the_Burden_Basket.krn
!!!REG: Southwest
!!!LANG: Non-Tone
!!!LING_GROUP: Uto-Aztecan
**kern
*staff1
*clefF4
*k[b-e-]
*M2/4
8d\
=1
8d\L
8c\J
8d\L
8B-\J
=2
4.B-\
8G\
=3||
*M3/4
8.B-\L
16c\Jk
8B-\L
8G\J
8B-\L
8F\J
=4
2F\
8G\L
8F\J
=5
2.F\
=6
4F\
8D/L
8C/J
8.C/L
16F/Jk
=7
4F\
4D\
4C/
=8
[2D\
8.D\L]
16d\Jk
=9||
*M2/4
8d\L
8c\J
8d\L
8B-\J
=10||
*M3/4
[2B-\
8B-\L]
8G\J
=11
8.B-\L
16c\Jk
8B-\L
8G\J
8B-\L
8F\J
=12
2F\
8G\L
8F\J
=13
2.F\
=14
4F\
4D\
8.C/L
16F/Jk
=15
4F\
4D\
4C/
=16
[2D\
8D\L]
8G\J
=17||
*M2/4
8G\L
8F\J
8G\L
8F\J
=18||
*M3/4
2F\
8G\L
8F\J
=19||
*M2/4
2F\
=20
4F\
4F\
=21||
*M3/4
4F\
4D\
4C/
=22
4F\
4D\
4C/
=23
2.D\
==
*-
